packages/astro-components-stencil/src/icons/phone-iphone.svg

<svg width="24" height="24" viewBox="0 0 24 24" fill="none" xmlns="http://www.w3.org/2000/svg">
<path fill-rule="evenodd" clip-rule="evenodd" d="M16.5 1H8.5C7.12 1 6 2.12 6 3.5V20.5C6 21.88 7.12 23 8.5 23H16.5C17.88 23 19 21.88 19 20.5V3.5C19 2.12 17.88 1 16.5 1ZM12.5 22C11.67 22 11 21.33 11 20.5C11 19.67 11.67 19 12.5 19C13.33 19 14 19.67 14 20.5C14 21.33 13.33 22 12.5 22ZM8 18H17V4H8V18Z" fill="black"/>
</svg>

<svg xmlns="http://www.w3.org/2000/svg" viewBox="0 0 24 24"><g xmlns="http://www.w3.org/2000/svg" id="phone-iphone" fill-rule="nonzero">
            <path d="M16.5 1h-8A2.5 2.5 0 006 3.5v17A2.5 2.5 0 008.5 23h8a2.5 2.5 0 002.5-2.5v-17A2.5 2.5 0 0016.5 1zm-4 21c-.83 0-1.5-.67-1.5-1.5s.67-1.5 1.5-1.5 1.5.67 1.5 1.5-.67 1.5-1.5 1.5zm4.5-4H8V4h9v14z"/>
        </g></svg>
